website/src/static/table/somethingwentwrong.svg

<svg width="144" height="80" viewBox="0 0 144 80" fill="none" xmlns="http://www.w3.org/2000/svg">
<rect width="144" height="80" fill="white"/>
<rect x="32" y="51" width="80" height="8" rx="4" fill="#E0E1E9" fill-opacity="0.8"/>
<rect x="48" y="67" width="48" height="8" rx="4" fill="#E0E1E9" fill-opacity="0.8"/>
<path d="M63.6414 37.8584H61.4772C60.777 37.8584 60.5331 37.5116 60.7364 36.7591L71.3144 18.3632C71.8812 17.7757 72.382 17.7757 72.9487 18.3632L83.5312 36.7669C83.7304 37.4395 83.4529 37.8584 82.7859 37.8584H70.6552C70.3036 37.8584 70.0186 38.1434 70.0186 38.495C70.0186 38.8466 70.3036 39.1316 70.6552 39.1316H82.7859C84.3885 39.1316 85.2128 37.7992 84.7222 36.3105L84.6695 36.1925L74.0152 17.664L73.9316 17.5501C72.8259 16.3492 71.4372 16.3492 70.3315 17.5501L70.2479 17.664L59.5936 36.1925C59.5689 36.2355 59.5492 36.2814 59.5351 36.329C59.0682 37.9056 59.8585 39.1316 61.4772 39.1316H63.6414C63.993 39.1316 64.278 38.8466 64.278 38.495C64.278 38.1434 63.993 37.8584 63.6414 37.8584Z" fill="#A9ABB6"/>
<path d="M65.653 38.495C65.653 38.8466 65.938 39.1316 66.2895 39.1316H68.4424C68.794 39.1316 69.079 38.8466 69.079 38.495C69.079 38.1434 68.794 37.8584 68.4424 37.8584H66.2895C65.938 37.8584 65.653 38.1434 65.653 38.495Z" fill="#A9ABB6"/>
<path d="M70.9969 25.6041C70.9969 24.901 71.5669 24.331 72.27 24.331C72.9731 24.331 73.5431 24.901 73.5431 25.6041V29.4235C73.5431 30.1266 72.9731 30.6966 72.27 30.6966C71.5669 30.6966 70.9969 30.1266 70.9969 29.4235V25.6041Z" fill="#A9ABB6"/>
<path d="M72.27 34.516C72.9731 34.516 73.5431 33.946 73.5431 33.2429C73.5431 32.5397 72.9731 31.9697 72.27 31.9697C71.5669 31.9697 70.9969 32.5397 70.9969 33.2429C70.9969 33.946 71.5669 34.516 72.27 34.516Z" fill="#A9ABB6"/>
<path fill-rule="evenodd" clip-rule="evenodd" d="M89.2451 42.7913C91.1507 42.7913 91.9145 41.29 91.3669 39.6284L74.3919 10.1077C73.032 8.63076 71.5081 8.63076 70.1481 10.1077L53.1731 39.6284C52.6255 41.4775 53.3893 42.7913 55.2949 42.7913H89.2451ZM73.3634 10.8731L90.1929 40.1406C90.4494 41.0344 90.1152 41.5182 89.2451 41.5182H55.2949C54.3687 41.5182 54.0864 41.1402 54.3555 40.126L71.1766 10.8731C71.9578 10.0732 72.5822 10.0732 73.3634 10.8731Z" fill="#A9ABB6"/>
</svg>

<svg xmlns="http://www.w3.org/2000/svg" width="144" height="80" fill="none"><path fill="#fff" d="M0 0h144v80H0z"/><rect width="80" height="8" x="32" y="51" fill="#E0E1E9" fill-opacity=".8" rx="4"/><rect width="48" height="8" x="48" y="67" fill="#E0E1E9" fill-opacity=".8" rx="4"/><path fill="#A9ABB6" d="M63.641 37.858h-2.164c-.7 0-.944-.346-.74-1.099l10.577-18.396c.567-.587 1.068-.587 1.635 0L83.53 36.767c.2.672-.078 1.091-.745 1.091h-12.13a.637.637 0 1 0 0 1.274h12.13c1.602 0 2.427-1.333 1.936-2.822l-.052-.117-10.655-18.529-.083-.114c-1.106-1.2-2.495-1.2-3.6 0l-.084.114-10.654 18.529a.638.638 0 0 0-.059.136c-.467 1.577.324 2.803 1.942 2.803h2.164a.637.637 0 1 0 0-1.274Z"/><path fill="#A9ABB6" d="M65.653 38.495c0 .352.285.637.636.637h2.153a.637.637 0 1 0 0-1.274H66.29a.637.637 0 0 0-.637.637ZM70.997 25.604a1.273 1.273 0 0 1 2.546 0v3.82a1.273 1.273 0 0 1-2.546 0v-3.82ZM72.27 34.516a1.273 1.273 0 1 0 0-2.546 1.273 1.273 0 0 0 0 2.546Z"/><path fill="#A9ABB6" fill-rule="evenodd" d="M89.245 42.791c1.906 0 2.67-1.501 2.122-3.163l-16.975-29.52c-1.36-1.477-2.884-1.477-4.244 0l-16.975 29.52c-.547 1.85.216 3.163 2.122 3.163h33.95ZM73.363 10.873l16.83 29.268c.256.893-.078 1.377-.948 1.377h-33.95c-.926 0-1.209-.378-.94-1.392l16.822-29.253c.78-.8 1.405-.8 2.186 0Z" clip-rule="evenodd"/></svg>
